X: 19103
T: Irish Lamentation
R: waltz
M: 3/4
K: Gmajor
G>A|B2 d<B A<G|A2 G2 G>A|B2 d<B A<G|A4 G>A|
B<G c<A B<G|E>D E2 G>A|B2 G2 G>A|G4 G>A|
B2 B2 Bc|B2 B2 A<B|a2 A2 A>B|A2 A2 G>A|
B<G c<A B<G|E>D E2 G>A|B2 G2 G>A|G4||
G>A|B2 d2 d>e|d2 cB A2|G2 g2 g>a|g4 G>A|
B2 d2 de|d2 cB A2|G2 g2 g>a|g4 de|
=f>e f>g a>f|e>d e>=f g>e|d>e gB AG|A4 GA|
B<G c<A B<G|E>D E2 G>A|B2 G2 GA|G4||

